src/assets/img/svg/arikool.svg

<?xml version="1.0" encoding="UTF-8" standalone="no"?>
<svg
   width="31.679752"
   height="31.674475"
   viewBox="0 0 31.679752 31.674475"
   fill="none"
   version="1.1"
   id="svg304"
   sodipodi:docname="arikool.svg"
   inkscape:version="1.2.2 (b0a8486541, 2022-12-01)"
   xmlns:inkscape="http://www.inkscape.org/namespaces/inkscape"
   xmlns:sodipodi="http://sodipodi.sourceforge.net/DTD/sodipodi-0.dtd"
   xmlns="http://www.w3.org/2000/svg"
   xmlns:svg="http://www.w3.org/2000/svg">
  <defs
     id="defs308" />
  <sodipodi:namedview
     id="namedview306"
     pagecolor="#ffffff"
     bordercolor="#000000"
     borderopacity="0.25"
     inkscape:showpageshadow="2"
     inkscape:pageopacity="0.0"
     inkscape:pagecheckerboard="0"
     inkscape:deskcolor="#d1d1d1"
     showgrid="false"
     inkscape:zoom="17.458333"
     inkscape:cx="7.3317422"
     inkscape:cy="15.809069"
     inkscape:window-width="1920"
     inkscape:window-height="1008"
     inkscape:window-x="0"
     inkscape:window-y="0"
     inkscape:window-maximized="1"
     inkscape:current-layer="svg304" />
  <g
     id="g314"
     transform="translate(-8.16,-9.1655256)">
    <path
       d="m 8.16,12.2 c 0,-0.27 0,-0.54 0,-0.8 0.01,-0.02 0.03,-0.03 0.04,-0.05 0.4,-1.49003 1.3,-2.18003 2.84,-2.18003 7.8,0 15.6,0 23.41,0 0.95,0 1.9,-0.01 2.84,0 1.18,0.02 2.21,0.86003 2.48,2.00003 0.27,1.16 -0.26,2.37 -1.31,2.9 -0.26,0.13 -0.31,0.28 -0.31,0.55 0,5.91 0,11.81 0,17.72 0,0.29 -0.01,0.58 -0.08,0.86 -0.27,1.18 -1.27,1.93 -2.54,1.93 -3.13,0 -6.27,0 -9.4,0 h -0.4 c 0.08,0.14 0.13,0.22 0.19,0.31 0.84,1.3 1.69,2.59 2.52,3.89 0.36,0.56 0.22,1.13 -0.33,1.42 -0.05,0.03 -0.1,0.06 -0.15,0.09 h -0.49 c -0.24,-0.23 -0.52,-0.43 -0.7,-0.7 -0.57,-0.82 -1.1,-1.67 -1.64,-2.5 -0.05,-0.07 -0.1,-0.14 -0.19,-0.26 0,0.86 0,1.66 0,2.45 0,0.57 -0.4,0.98 -0.93,0.98 -0.53,0 -0.92,-0.41 -0.93,-0.98 0,-0.71 0,-1.42 0,-2.13 0,-0.08 -0.01,-0.17 -0.02,-0.32 -0.62,0.95 -1.2,1.83 -1.77,2.72 -0.2,0.31 -0.41,0.58 -0.74,0.74 h -0.49 c -0.77,-0.46 -0.87,-0.9 -0.38,-1.67 0.81,-1.24 1.62,-2.49 2.42,-3.73 0.06,-0.09 0.11,-0.18 0.19,-0.31 h -0.43 c -3.09,0 -6.19,0 -9.28,0 -0.27,0 -0.54,-0.02 -0.8,-0.08 -1.18,-0.29 -1.92,-1.28 -1.92,-2.59 0,-5.92 0,-11.84 0,-17.75 0,-0.08 0,-0.17 0,-0.25 C 9.88,14.29 9.8,14.21 9.65,14.13 8.89,13.75 8.4,13.14 8.22,12.3 8.22,12.26 8.18,12.23 8.17,12.19 Z m 3.55,2.22 c 0,0.14 0,0.26 0,0.37 0,5.87 0,11.73 0,17.6 0,0.68 0.22,0.9 0.88,0.9 7.61,0 15.22,0 22.82,0 0.67,0 0.88,-0.22 0.88,-0.89 0,-5.88 0,-11.75 0,-17.63 V 14.43 H 11.71 Z M 24,11.02 c -4.31,0 -8.62,0 -12.93,0 -0.1,0 -0.21,0 -0.31,0 -0.41,0.02 -0.73,0.33 -0.74,0.73 -0.02,0.4 0.26,0.73 0.68,0.78 0.1,0.01 0.21,0.01 0.31,0.01 8.66,0 17.32,0 25.98,0 0.12,0 0.25,0 0.37,-0.02 0.38,-0.07 0.64,-0.39 0.62,-0.77 -0.02,-0.37 -0.3,-0.68 -0.68,-0.72 -0.11,-0.01 -0.23,0 -0.34,0 -4.32,0 -8.64,0 -12.96,0 z"
       fill="currentColor"
       id="path296" />
    <path
       d="m 33.42,24 c 0,1.73 0,3.46 0,5.19 0,0.8 -0.37,1.18 -1.17,1.18 -1.04,0 -2.08,0 -3.12,0 -0.77,0 -1.16,-0.39 -1.16,-1.16 0,-3.47 0,-6.95 0,-10.42 0,-0.77 0.38,-1.15 1.16,-1.15 1.06,0 2.12,0 3.18,0 0.72,0 1.1,0.38 1.11,1.11 0,1.75 0,3.5 0,5.26 z m -3.57,-4.5 v 8.98 h 1.7 V 19.5 Z"
       fill="currentColor"
       id="path298" />
    <path
       d="m 26.73,25.73 c 0,1.18 0,2.35 0,3.53 0,0.72 -0.39,1.11 -1.11,1.12 -1.07,0 -2.14,0 -3.22,0 -0.73,0 -1.13,-0.4 -1.13,-1.13 0,-2.34 0,-4.68 0,-7.02 0,-0.75 0.39,-1.14 1.14,-1.14 1.06,0 2.12,0 3.19,0 0.74,0 1.12,0.38 1.12,1.13 0,1.18 0,2.35 0,3.53 z m -1.88,2.77 v -5.54 h -1.7 v 5.54 z"
       fill="currentColor"
       id="path300" />
    <path
       d="m 20.05,27.57 c 0,0.59 0,1.17 0,1.76 0,0.6 -0.4,1.03 -1,1.03 -1.14,0.02 -2.29,0.01 -3.43,0 -0.62,0 -1.02,-0.43 -1.02,-1.05 0,-1.17 0,-2.35 0,-3.52 0,-0.61 0.42,-1.03 1.03,-1.03 1.13,0 2.27,0 3.4,0 0.6,0 1.01,0.42 1.01,1.01 0,0.6 0,1.2 0,1.79 z m -1.87,-0.94 h -1.71 v 1.86 h 1.71 z"
       fill="currentColor"
       id="path302" />
  </g>
</svg>

<svg width="48" height="48" viewBox="0 0 48 48" fill="none" xmlns="http://www.w3.org/2000/svg">
<path d="M8.16 12.2C8.16 11.93 8.16 11.66 8.16 11.4C8.17 11.38 8.19 11.37 8.2 11.35C8.6 9.85997 9.5 9.16997 11.04 9.16997C18.84 9.16997 26.64 9.16997 34.45 9.16997C35.4 9.16997 36.35 9.15997 37.29 9.16997C38.47 9.18997 39.5 10.03 39.77 11.17C40.04 12.33 39.51 13.54 38.46 14.07C38.2 14.2 38.15 14.35 38.15 14.62C38.15 20.53 38.15 26.43 38.15 32.34C38.15 32.63 38.14 32.92 38.07 33.2C37.8 34.38 36.8 35.13 35.53 35.13C32.4 35.13 29.26 35.13 26.13 35.13H25.73C25.81 35.27 25.86 35.35 25.92 35.44C26.76 36.74 27.61 38.03 28.44 39.33C28.8 39.89 28.66 40.46 28.11 40.75C28.06 40.78 28.01 40.81 27.96 40.84H27.47C27.23 40.61 26.95 40.41 26.77 40.14C26.2 39.32 25.67 38.47 25.13 37.64C25.08 37.57 25.03 37.5 24.94 37.38C24.94 38.24 24.94 39.04 24.94 39.83C24.94 40.4 24.54 40.81 24.01 40.81C23.48 40.81 23.09 40.4 23.08 39.83C23.08 39.12 23.08 38.41 23.08 37.7C23.08 37.62 23.07 37.53 23.06 37.38C22.44 38.33 21.86 39.21 21.29 40.1C21.09 40.41 20.88 40.68 20.55 40.84H20.06C19.29 40.38 19.19 39.94 19.68 39.17C20.49 37.93 21.3 36.68 22.1 35.44C22.16 35.35 22.21 35.26 22.29 35.13H21.86C18.77 35.13 15.67 35.13 12.58 35.13C12.31 35.13 12.04 35.11 11.78 35.05C10.6 34.76 9.86 33.77 9.86 32.46C9.86 26.54 9.86 20.62 9.86 14.71C9.86 14.63 9.86 14.54 9.86 14.46C9.88 14.29 9.8 14.21 9.65 14.13C8.89 13.75 8.4 13.14 8.22 12.3C8.22 12.26 8.18 12.23 8.17 12.19L8.16 12.2ZM11.71 14.42C11.71 14.56 11.71 14.68 11.71 14.79C11.71 20.66 11.71 26.52 11.71 32.39C11.71 33.07 11.93 33.29 12.59 33.29C20.2 33.29 27.81 33.29 35.41 33.29C36.08 33.29 36.29 33.07 36.29 32.4C36.29 26.52 36.29 20.65 36.29 14.77V14.43H11.71V14.42ZM24 11.02C19.69 11.02 15.38 11.02 11.07 11.02C10.97 11.02 10.86 11.02 10.76 11.02C10.35 11.04 10.03 11.35 10.02 11.75C10 12.15 10.28 12.48 10.7 12.53C10.8 12.54 10.91 12.54 11.01 12.54C19.67 12.54 28.33 12.54 36.99 12.54C37.11 12.54 37.24 12.54 37.36 12.52C37.74 12.45 38 12.13 37.98 11.75C37.96 11.38 37.68 11.07 37.3 11.03C37.19 11.02 37.07 11.03 36.96 11.03C32.64 11.03 28.32 11.03 24 11.03V11.02Z" fill="currentColor"/>
<path d="M33.42 24C33.42 25.73 33.42 27.46 33.42 29.19C33.42 29.99 33.05 30.37 32.25 30.37C31.21 30.37 30.17 30.37 29.13 30.37C28.36 30.37 27.97 29.98 27.97 29.21C27.97 25.74 27.97 22.26 27.97 18.79C27.97 18.02 28.35 17.64 29.13 17.64C30.19 17.64 31.25 17.64 32.31 17.64C33.03 17.64 33.41 18.02 33.42 18.75C33.42 20.5 33.42 22.25 33.42 24.01V24ZM29.85 19.5V28.48H31.55V19.5H29.85Z" fill="currentColor"/>
<path d="M26.73 25.73C26.73 26.91 26.73 28.08 26.73 29.26C26.73 29.98 26.34 30.37 25.62 30.38C24.55 30.38 23.48 30.38 22.4 30.38C21.67 30.38 21.27 29.98 21.27 29.25C21.27 26.91 21.27 24.57 21.27 22.23C21.27 21.48 21.66 21.09 22.41 21.09C23.47 21.09 24.53 21.09 25.6 21.09C26.34 21.09 26.72 21.47 26.72 22.22C26.72 23.4 26.72 24.57 26.72 25.75L26.73 25.73ZM24.85 28.5V22.96H23.15V28.5H24.85Z" fill="currentColor"/>
<path d="M20.05 27.57C20.05 28.16 20.05 28.74 20.05 29.33C20.05 29.93 19.65 30.36 19.05 30.36C17.91 30.38 16.76 30.37 15.62 30.36C15 30.36 14.6 29.93 14.6 29.31C14.6 28.14 14.6 26.96 14.6 25.79C14.6 25.18 15.02 24.76 15.63 24.76C16.76 24.76 17.9 24.76 19.03 24.76C19.63 24.76 20.04 25.18 20.04 25.77C20.04 26.37 20.04 26.97 20.04 27.56L20.05 27.57ZM18.18 26.63H16.47V28.49H18.18V26.63Z" fill="currentColor"/>
</svg>
